X:1
T:The Prince of Peace, 12.12.12.12
T:Cyril Barker (1903-1981)
T:The Prince of Peace, 12.12.12.12
C:Cyril Barker (1903-1981)
%%score ( 1 2 ) ( 3 4 )
L:1/8
M:4/4
K:G
V:1 treble 
V:2 treble 
V:3 bass 
V:4 bass 
V:1
 [Fd]4 [G^c]2 [A=c]2 | [GB]3 [FA] G2 [GB]2 | [Ad]2 [Bd]2 [Ae]2 [Ge]2 | [Fd]6 [Fc]2 | %4
 [^DB]3 [DB] [E^A]2 [F=A]2 | [EG]2 [FA]2 [FB]2 [^DA]2 | [EG]4 [DF]4 | [B,E]6 [CD]2 | %8
 [CE]3 [DF] [DG]2 [EA]2 | [DB]2 [DG]2 [Ge]2 [Fd]2 | [Ec]4 D2 G2 | [FA]4 [Fd]4 | %12
 [Fd]3 [Fd] [G^c]2 [A=c]2 | [GB]2 GA [FB]2 [Ec]2 | [GB]4 [FA]4 | G8 |] %16
V:2
 x8 | x4 G2 x2 | x8 | x8 | x8 | x8 | x8 | x8 | x8 | x8 | x4 B4 | x8 | x8 | x2 G2 x4 | x8 | G8 |] %16
V:3
 [D,A,]4 [E,A,]2 [F,D]2 | [G,D]3 [A,D] [B,D]2 [G,D]2 | [F,D]2 [G,B,]2 [F,C]2 [C,C]2 | %3
 [D,C]6 [D,A,]2 | [B,,B,]3 [B,,F,] [^C,F,]2 [^D,B,]2 | [E,B,]2 [D,C]2 [^D,B,]2 [F,B,]2 | %6
 [B,,B,]4 [D,A,]4 | [E,G,]6 [F,A,]2 | [C,G,]3 [C,A,] [B,,B,]2 [A,,C]2 | %9
 [G,,B,]2 [G,B,]2 [C,C]2 [D,A,]2 | [E,G,]2 [F,A,]2 [G,B,]2 [A,,^C]2 | [D,D]4 [D,A,]4 | %12
 [D,A,]3 [D,A,] [E,A,]2 [F,D]2 | [G,D]2 B,C [B,,D]2 [A,,E]2 | [D,D]4 D2 C2 | [G,B,]8 |] %16
V:4
 x8 | x8 | x8 | x8 | x8 | x8 | x8 | x8 | x8 | x8 | x8 | x8 | x8 | x2 D,2 x4 | x4 D,4 | x8 |] %16

